icons/svg/shields/h_park_shield.svg

<?xml version="1.0" encoding="UTF-8" standalone="no"?>
<svg
   xmlns:dc="http://purl.org/dc/elements/1.1/"
   xmlns:cc="http://creativecommons.org/ns#"
   xmlns:rdf="http://www.w3.org/1999/02/22-rdf-syntax-ns#"
   xmlns:svg="http://www.w3.org/2000/svg"
   xmlns="http://www.w3.org/2000/svg"
   xmlns:sodipodi="http://sodipodi.sourceforge.net/DTD/sodipodi-0.dtd"
   xmlns:inkscape="http://www.inkscape.org/namespaces/inkscape"
   width="16"
   height="16"
   id="svg2"
   version="1.1"
   inkscape:version="0.91 r13725"
   sodipodi:docname="h_park_shield.svg">
  <defs
     id="defs13" />
  <sodipodi:namedview
     pagecolor="#ffffff"
     bordercolor="#666666"
     borderopacity="1"
     objecttolerance="10"
     gridtolerance="10"
     guidetolerance="10"
     inkscape:pageopacity="0"
     inkscape:pageshadow="2"
     inkscape:window-width="1920"
     inkscape:window-height="1051"
     id="namedview11"
     showgrid="false"
     inkscape:zoom="36.828071"
     inkscape:cx="8.9680257"
     inkscape:cy="8.5826404"
     inkscape:window-x="3840"
     inkscape:window-y="0"
     inkscape:window-maximized="1"
     inkscape:current-layer="g5" />
  <metadata
     id="metadata2975">image/svg+xmlen<rdf:RDF>
  <cc:Work
     rdf:about="">
    <dc:format>image/svg+xml</dc:format>
    <dc:type
       rdf:resource="http://purl.org/dc/dcmitype/StillImage" />
    <dc:title></dc:title>
  </cc:Work>
</rdf:RDF>
</metadata>
  <g
     id="g5"
     style="fill:#2f2f2f;fill-opacity:1;stroke:#fefefe;stroke-width:65.80000305;stroke-linecap:butt;stroke-linejoin:round;stroke-miterlimit:4;stroke-dasharray:none;stroke-opacity:0.68181817"
     transform="translate(7.413675,-564)">
    <title
       id="title7">Layer 1</title>
    <path
       sodipodi:type="inkscape:offset"
       inkscape:radius="0.79859954"
       inkscape:original="M 4.3984375 2.8105469 C 4.3984375 2.8105469 3.6222591 4.3653756 2.9863281 5.2285156 C 2.9863281 5.3148156 3.2342495 5.6585856 3.6582031 5.5722656 C 3.6582031 5.6154656 3.6931856 5.7029336 3.7285156 5.7460938 C 3.3752203 6.3934437 2.9148813 7.0397675 2.3496094 7.7734375 C 2.3496094 7.8597375 2.5982711 8.5943137 3.2695312 8.4648438 C 3.057555 8.8532534 2.2799424 10.146565 1.75 10.578125 C 1.75 10.664425 2.2445824 11.529035 2.9511719 11.140625 C 3.1173009 11.681785 3.5439293 11.982839 4.0097656 11.818359 C 3.9708496 12.984419 3.3507126 12.745259 3.4199219 13.167969 L 5.1308594 13.167969 C 4.8482233 12.779559 4.7872829 13.038096 4.7519531 11.916016 L 4.7519531 11.804688 C 5.1945524 11.944743 5.6458305 11.590784 5.8125 11.183594 C 6.4484311 11.485684 6.9073369 11.052855 7.0839844 10.578125 C 6.8366781 10.362345 6.2014708 9.6299631 5.7421875 8.9394531 C 5.7421875 8.9394531 5.17712 9.7157094 4.5058594 9.0683594 C 4.0819055 9.1978194 3.7979144 9.0260956 3.5859375 8.8535156 C 3.8685734 9.0261356 4.186634 8.9815962 4.3632812 8.7226562 C 4.7519056 9.0679066 5.1765216 8.9825325 5.4238281 8.5078125 C 6.1657473 8.6372825 6.378733 7.8595664 6.4140625 7.8164062 C 5.8841201 7.2985263 5.1757813 6.0898438 5.1757812 6.0898438 C 5.0344628 6.4351038 4.6471772 6.3936856 4.5058594 6.1347656 C 4.2585529 6.2210656 4.0456145 6.1335575 3.9042969 5.9609375 C 4.0809442 6.0904075 4.2924487 6.0476 4.3984375 5.875 C 4.681073 6.17709 5.140625 5.9606556 5.140625 5.5722656 C 5.5292498 5.7880556 5.8125 5.3148256 5.8125 5.2285156 C 5.2118981 4.3653756 4.3984375 2.8105469 4.3984375 2.8105469 z M 8.2363281 10.257812 L 8.2363281 11.289062 L 8.8730469 11.289062 L 8.8730469 12.927734 L 9.9042969 12.927734 L 9.9042969 11.289062 L 12.587891 11.289062 L 12.587891 12.927734 L 13.619141 12.927734 L 13.619141 11.289062 L 14.253906 11.289062 L 14.253906 10.257812 L 8.2363281 10.257812 z "
       style="fill:#ebe7e4;fill-opacity:1;stroke:none;color:#000000;clip-rule:nonzero;display:inline;overflow:visible;visibility:visible;opacity:0.81199999;isolation:auto;mix-blend-mode:normal;color-interpolation:sRGB;color-interpolation-filters:linearRGB;solid-color:#000000;solid-opacity:1;fill-rule:nonzero;stroke-width:0.67359892;stroke-linecap:butt;stroke-linejoin:miter;stroke-miterlimit:4;stroke-dasharray:none;stroke-dashoffset:0;stroke-opacity:1;marker:none;filter-blend-mode:normal;filter-gaussianBlur-deviation:0;color-rendering:auto;image-rendering:auto;shape-rendering:auto;text-rendering:auto;enable-background:accumulate"
       id="path4212"
       d="M 4.3886719,2.0117188 A 0.7986794,0.7986794 0 0 0 3.6835938,2.453125 c 0,0 -0.7915052,1.5565292 -1.3398438,2.3007812 A 0.7986794,0.7986794 0 0 0 2.1875,5.2285156 c 0,0.4039426 0.1068708,0.4424681 0.1875,0.5585938 0.055339,0.079702 0.1362046,0.1483859 0.2128906,0.21875 C 2.3232024,6.4147513 2.0859371,6.8060468 1.7167969,7.2851562 A 0.7986794,0.7986794 0 0 0 1.5507812,7.7734375 c 10e-8,0.2025422 0.024409,0.2169643 0.042969,0.28125 0.01856,0.064286 0.041047,0.1269303 0.070312,0.1953125 0.05853,0.1367644 0.1423211,0.2946511 0.2753906,0.4570312 0.036887,0.045012 0.1195596,0.076786 0.1679688,0.1210938 -0.05895,0.092364 -0.07712,0.1362926 -0.140625,0.2304688 C 1.6970048,9.4586871 1.3564833,9.8690884 1.2460938,9.9589844 A 0.7986794,0.7986794 0 0 0 0.95117188,10.578125 c 0,0.196092 0.0311147,0.233913 0.0488281,0.285156 0.017713,0.05124 0.035511,0.08901 0.052734,0.125 0.034447,0.07198 0.072435,0.138102 0.1191406,0.208985 0.093411,0.141764 0.2192194,0.298702 0.4003906,0.451172 0.2271177,0.191137 0.6146817,0.29265 1.0273438,0.302734 0.1086235,0.143745 0.1564852,0.327671 0.3105468,0.433594 -0.016547,0.01734 -0.010417,0.0061 -0.029297,0.02734 -0.160953,0.181407 -0.2960886,0.603271 -0.25,0.884766 a 0.7986794,0.7986794 0 0 0 0.7890625,0.669922 l 1.7109375,0 a 0.7986794,0.7986794 0 0 0 0.6464844,-1.269531 c -0.085081,-0.116923 -0.1533997,-0.18244 -0.2011719,-0.232422 0.00362,0.0078 -0.0039,-0.05935 -0.00195,-0.05664 0.072872,-0.03342 0.1804866,0.0039 0.2441406,-0.03711 0.188405,-0.121512 0.2748011,-0.321931 0.4042968,-0.490235 0.2837555,-0.007 0.5907465,0.107279 0.8085938,-0.02344 0.2148288,-0.128905 0.2766389,-0.335592 0.4082031,-0.511719 a 0.7986794,0.7986794 0 0 0 0.6347657,0.724609 l 0,0.857422 a 0.7986794,0.7986794 0 0 0 0.7988281,0.798828 l 1.03125,0 a 0.7986794,0.7986794 0 0 0 0.7988281,-0.798828 l 0,-0.839843 1.085937,0 0,0.839843 a 0.7986794,0.7986794 0 0 0 0.798829,0.798828 l 1.03125,0 a 0.7986794,0.7986794 0 0 0 0.798828,-0.798828 l 0,-0.857422 a 0.7986794,0.7986794 0 0 0 0.634765,-0.78125 l 0,-1.03125 A 0.7986794,0.7986794 0 0 0 14.253906,9.4589844 l -6.0175779,0 A 0.7986794,0.7986794 0 0 0 7.5332031,9.8828125 C 7.4200919,9.7690704 7.0283,9.2923126 6.671875,8.8261719 6.706938,8.7919484 6.7727113,8.766695 6.8007812,8.7324219 6.9342524,8.5694546 7.016893,8.4152785 7.0703125,8.3027344 c 0.023509,-0.04953 0.039702,-0.085192 0.050781,-0.1113282 1.615e-4,-3.81e-4 -1.585e-4,-0.00158 0,-0.00195 a 0.7986794,0.7986794 0 0 0 0.00586,-0.013672 c 0.00518,-0.012219 0.00824,-0.019221 0.00391,-0.00977 A 0.7986794,0.7986794 0 0 0 6.9726562,7.2460938 C 6.7226873,7.0018146 6.395479,6.4680561 6.1582031,6.0996094 6.2823003,5.9890441 6.3754475,5.8781682 6.4433594,5.7675781 c 0.036109,-0.058801 0.066715,-0.1166725 0.095703,-0.1875 0.028988,-0.070827 0.072266,-0.1223716 0.072266,-0.3515625 A 0.7986794,0.7986794 0 0 0 6.46875,4.7714844 C 5.9318687,3.9999189 5.1054687,2.4394531 5.1054688,2.4394531 A 0.7986794,0.7986794 0 0 0 4.3886719,2.0117188 Z"
       transform="translate(-7.413675,564)" />
  </g>
</svg>

<svg width="16" height="16" viewBox="0 0 16 16" fill="none" xmlns="http://www.w3.org/2000/svg">
<path opacity="0.812" d="M4.38867 2.01171C4.24194 2.01342 4.09851 2.05551 3.97413 2.13338C3.84975 2.21124 3.74923 2.32187 3.68359 2.45312C3.68359 2.45312 2.89209 4.00965 2.34375 4.7539C2.24225 4.89132 2.18748 5.05767 2.1875 5.22851C2.1875 5.63245 2.29437 5.67098 2.375 5.7871C2.43034 5.86681 2.5112 5.93549 2.58789 6.00585C2.3232 6.41475 2.08594 6.80604 1.7168 7.28515C1.60899 7.42507 1.5506 7.59679 1.55078 7.77343C1.55078 7.97597 1.57519 7.9904 1.59375 8.05468C1.61231 8.11897 1.6348 8.18161 1.66406 8.24999C1.72259 8.38676 1.80638 8.54465 1.93945 8.70703C1.97634 8.75204 2.05901 8.78381 2.10742 8.82812C2.04847 8.92048 2.0303 8.96441 1.9668 9.05859C1.697 9.45868 1.35648 9.86908 1.24609 9.95898C1.15404 10.0338 1.07981 10.1282 1.0288 10.2353C0.977783 10.3424 0.951266 10.4595 0.951172 10.5781C0.951172 10.7742 0.982287 10.812 1 10.8633C1.01771 10.9145 1.03551 10.9523 1.05273 10.9883C1.08718 11.0603 1.12517 11.1264 1.17187 11.1973C1.26529 11.339 1.39109 11.496 1.57227 11.6484C1.79938 11.8396 2.18695 11.9411 2.59961 11.9512C2.70823 12.0949 2.75609 12.2788 2.91016 12.3848C2.89361 12.4021 2.89974 12.3909 2.88086 12.4121C2.71991 12.5935 2.58477 13.0154 2.63086 13.2969C2.66143 13.484 2.75761 13.6542 2.90218 13.777C3.04675 13.8997 3.23028 13.967 3.41992 13.9668H5.13086C5.27842 13.967 5.42316 13.9264 5.54903 13.8494C5.6749 13.7724 5.77697 13.662 5.84393 13.5305C5.91089 13.399 5.94011 13.2516 5.92836 13.1045C5.91661 12.9574 5.86433 12.8164 5.77734 12.6973C5.69226 12.5803 5.62394 12.5148 5.57617 12.4648C5.57979 12.4726 5.57227 12.4055 5.57422 12.4082C5.64709 12.3748 5.75471 12.4121 5.81836 12.3711C6.00677 12.2496 6.09316 12.0492 6.22266 11.8809C6.50641 11.8739 6.81341 11.9881 7.03125 11.8574C7.24608 11.7285 7.30789 11.5218 7.43946 11.3457C7.45197 11.5191 7.52073 11.6837 7.6353 11.8145C7.74986 11.9452 7.90397 12.0351 8.07422 12.0703V12.9277C8.0742 13.0326 8.09485 13.1365 8.13499 13.2334C8.17513 13.3304 8.23397 13.4184 8.30815 13.4926C8.38233 13.5668 8.4704 13.6256 8.56733 13.6658C8.66426 13.7059 8.76814 13.7266 8.87305 13.7266H9.9043C10.0092 13.7266 10.1131 13.7059 10.21 13.6658C10.3069 13.6256 10.395 13.5668 10.4692 13.4926C10.5434 13.4184 10.6022 13.3304 10.6424 13.2334C10.6825 13.1365 10.7031 13.0326 10.7031 12.9277V12.0879H11.7891V12.9277C11.789 13.0326 11.8097 13.1365 11.8498 13.2334C11.89 13.3304 11.9488 13.4184 12.023 13.4926C12.0972 13.5668 12.1852 13.6256 12.2822 13.6658C12.3791 13.7059 12.483 13.7266 12.5879 13.7266H13.6191C13.7241 13.7266 13.8279 13.7059 13.9249 13.6658C14.0218 13.6256 14.1099 13.5668 14.184 13.4926C14.2582 13.4184 14.3171 13.3304 14.3572 13.2334C14.3973 13.1365 14.418 13.0326 14.418 12.9277V12.0703C14.5974 12.0327 14.7583 11.9345 14.8739 11.7923C14.9895 11.65 15.0526 11.4723 15.0527 11.2891V10.2578C15.0528 10.1529 15.0321 10.049 14.992 9.95208C14.9518 9.85515 14.893 9.76709 14.8188 9.6929C14.7446 9.61872 14.6566 9.55988 14.5596 9.51975C14.4627 9.47961 14.3588 9.45896 14.2539 9.45898H8.23633C8.09174 9.45936 7.94997 9.49899 7.82614 9.57363C7.70231 9.64828 7.60106 9.75513 7.5332 9.88281C7.42009 9.76907 7.0283 9.29231 6.67188 8.82617C6.70694 8.79194 6.77271 8.76669 6.80078 8.73242C6.93425 8.56945 7.01689 8.41527 7.07031 8.30273C7.09382 8.2532 7.11001 8.21754 7.12109 8.1914C7.12125 8.19102 7.12093 8.18982 7.12109 8.18945C7.12309 8.18491 7.12504 8.18035 7.12695 8.17578C7.13213 8.16356 7.13519 8.15656 7.13086 8.16601C7.20429 8.01545 7.22853 7.84562 7.20013 7.68053C7.17174 7.51545 7.09216 7.36346 6.97266 7.24609C6.72269 7.00181 6.39548 6.46805 6.1582 6.0996C6.2823 5.98904 6.37545 5.87816 6.44336 5.76757C6.47947 5.70877 6.51007 5.6509 6.53906 5.58007C6.56805 5.50925 6.61133 5.4577 6.61133 5.22851C6.61165 5.06517 6.56189 4.90566 6.46875 4.77148C5.93187 3.99991 5.10547 2.43945 5.10547 2.43945C5.03706 2.30898 4.9339 2.19998 4.8074 2.12449C4.68089 2.049 4.53598 2.00997 4.38867 2.01171Z" fill="#EBE7E4"/>
</svg>
